X:22
T:Violetta Hornpipe (Craig 22)
M:C
L:1/8
B:Empire Violin Collection of Hornpipes
H:Published by Thomas Craig
H:Music Publisher, &c.
H:George Street, Aberdeen, N.B.
Z:Peter Dunk December 2011
R:hornpipe
Q:1/4=140
K:F
(AB) | c=Bcd cfaf | dfba gfed | c=Bdc cAFA | Ac=Bc dcA_B |!
c=Bcd cfaf | dfbf gfed | cfaf dbge | f2f2f2 :|!
|: ef | g^fga bgec | fefg afcA | dbca BgAd | (3gag (3fed c2 AB |!
c=Bcd cfaf | dfba gfed | cfaf dbge | f2f2f2:|

